Icons/SVG/brands/youtube.svg

<?xml version="1.0" encoding="UTF-8"?><svg id="Youtube" xmlns="http://www.w3.org/2000/svg" viewBox="0 0 24 24"><path d="m22,7v-2h-2v-1H4v1h-2v2h-1v10h1v2h2v1h16v-1h2v-2h1V7h-1Zm-10,8h-2v-6h2v1h2v1h2v2h-2v1h-2v1Z"/></svg>

<svg width="24" height="24" viewBox="0 0 24 24" fill="none" xmlns="http://www.w3.org/2000/svg">
<path d="M22 7V5H20V4H4V5H2V7H1V17H2V19H4V20H20V19H22V17H23V7H22ZM12 15H10V9H12V10H14V11H16V13H14V14H12V15Z" fill="black"/>
</svg>
